X: 18
T:Breton Tune
M:4/4
L:1/8
Q:140
C:Traditional
Z:Richard Moon,  9/9/1999
K:AMin
AB|c2 B2 AEAB|cAAG A2 ed|c2 B2 AEAB|cAAG ABcd||!e2 e2 dc A2|cB c2 de d2|
B/2c/2d cB AEAB|cAAG ABcd|!e2 e2 dc A2|cB c2 de d2|B/2c/2d cB AEAB|cAAG
A4||

